img/common/SINGLE_LOGO(BLACK).svg

<?xml version="1.0" encoding="utf-8"?>
<!-- Generator: Adobe Illustrator 22.0.1, SVG Export Plug-In . SVG Version: 6.00 Build 0)  -->
<svg version="1.1" id="레이어_1" xmlns="http://www.w3.org/2000/svg" xmlns:xlink="http://www.w3.org/1999/xlink" x="0px"
	 y="0px" viewBox="0 0 200 200" style="enable-background:new 0 0 200 200;" xml:space="preserve">
<style type="text/css">
	.st0{display:none;fill:#FFFFFF;}
	.st1{display:none;}
	.st2{display:inline;fill:#EC6C5F;}
	.st3{display:inline;fill:#1F2020;}
	.st4{fill:#EC6C5F;}
	.st5{fill:#FFFFFF;}
</style>
<circle class="st0" cx="91" cy="99" r="72.1"/>
<g class="st1">
	<path class="st2" d="M64.3,145.1L64.3,145.1l33.4-16.8c0.1-1.6,0.2-3.3,0.2-5v-13l-36,32.3C62.7,143.7,63.5,144.5,64.3,145.1z"/>
	<polygon class="st2" points="150.4,101.9 107.3,80.3 97.9,75.6 52.3,52.7 52.3,135.8 53.4,133.7 58.1,62.5 97.9,94.5 107.3,101.9 
		107.3,123.6 	"/>
	<polygon class="st3" points="112.6,42.3 107.3,42.3 97.9,42.3 92.5,42.3 92.5,43.6 97.9,43.6 97.9,75.6 107.3,80.3 107.3,43.6 
		112.6,43.6 	"/>
	<path class="st3" d="M97.9,94.5v15.8v13c0,1.8-0.1,3.5-0.2,5c-0.5,6.6-2.1,11.5-4.7,14.8c-3.3,4.1-8.3,6.1-15,6.1
		c-4.7,0-8.7-1-12.1-3c-0.5-0.3-1-0.6-1.6-1.1c-0.8-0.6-1.6-1.5-2.4-2.6c-2.4-3.6-4.1-10.1-1.2-22.5l-7.4,13.6l-1.1,2.1l-2.7,4.9
		c0.8,1.5,1.7,2.9,2.7,4.2c0.1,0.2,0.3,0.3,0.4,0.5c0.8,1.1,1.7,2.1,2.6,3.1c0.3,0.3,0.5,0.5,0.8,0.8c1.6,1.6,3.4,2.9,5.3,4.1
		c4.8,2.8,10.5,4.3,17,4.3c5.3,0,9.7-0.9,13.4-2.6c3.6-1.7,6.6-4.1,8.9-7.1c2.3-3.1,4-6.6,5-10.6s1.6-8.4,1.6-13.1v-0.7v-21.6
		L97.9,94.5z"/>
</g>
<g>
	<path class="st4" d="M64.4,145.1L64.4,145.1l33.4-16.8c0.1-1.6,0.2-3.3,0.2-5v-13l-36,32.3C62.8,143.7,63.5,144.5,64.4,145.1z"/>
	<polygon class="st4" points="150.4,101.9 107.4,80.3 97.9,75.6 52.3,52.7 52.3,135.8 53.5,133.7 58.1,62.5 97.9,94.5 107.4,101.9 
		107.4,123.6 	"/>
	<polygon class="st5" points="112.6,42.3 107.4,42.3 97.9,42.3 92.6,42.3 92.6,43.6 97.9,43.6 97.9,75.6 107.4,80.3 107.4,43.6 
		112.6,43.6 	"/>
	<path class="st5" d="M97.9,94.5v15.8v13c0,1.8-0.1,3.5-0.2,5c-0.5,6.6-2.1,11.5-4.7,14.8c-3.3,4.1-8.3,6.1-15,6.1
		c-4.7,0-8.7-1-12.1-3c-0.5-0.3-1-0.6-1.6-1.1c-0.8-0.6-1.6-1.5-2.4-2.6c-2.4-3.6-4.1-10.1-1.2-22.5l-7.4,13.6l-1.1,2.1l-2.7,4.9
		c0.8,1.5,1.7,2.9,2.7,4.2c0.1,0.2,0.3,0.3,0.4,0.5c0.8,1.1,1.7,2.1,2.6,3.1c0.3,0.3,0.5,0.5,0.8,0.8c1.6,1.6,3.4,2.9,5.3,4.1
		c4.8,2.8,10.5,4.3,17,4.3c5.3,0,9.7-0.9,13.4-2.6c3.6-1.7,6.6-4.1,8.9-7.1c2.3-3.1,4-6.6,5-10.6s1.6-8.4,1.6-13.1v-0.7v-21.6
		L97.9,94.5z"/>
</g>
</svg>

<?xml version="1.0" encoding="UTF-8" standalone="no"?>
<!DOCTYPE svg PUBLIC "-//W3C//DTD SVG 1.1//EN" "http://www.w3.org/Graphics/SVG/1.1/DTD/svg11.dtd">
<svg width="100%" height="100%" viewBox="0 0 100 116" version="1.1" xmlns="http://www.w3.org/2000/svg" xmlns:xlink="http://www.w3.org/1999/xlink" xml:space="preserve" xmlns:serif="http://www.serif.com/" style="fill-rule:evenodd;clip-rule:evenodd;stroke-linejoin:round;stroke-miterlimit:1.41421;">
    <g transform="matrix(1,0,0,1,-50,-42)">
        <path d="M64.4,145.1L97.8,128.3C97.9,126.7 98,125 98,123.3L98,110.3L62,142.6C62.8,143.7 63.5,144.5 64.4,145.1Z" style="fill:rgb(236,108,95);fill-rule:nonzero;"/>
        <path d="M150.4,101.9L107.4,80.3L97.9,75.6L52.3,52.7L52.3,135.8L53.5,133.7L58.1,62.5L97.9,94.5L107.4,101.9L107.4,123.6L150.4,101.9Z" style="fill:rgb(236,108,95);fill-rule:nonzero;"/>
        <path d="M112.6,42.3L107.4,42.3L97.9,42.3L92.6,42.3L92.6,43.6L97.9,43.6L97.9,75.6L107.4,80.3L107.4,43.6L112.6,43.6L112.6,42.3Z" style="fill:white;fill-rule:nonzero;"/>
        <path d="M97.9,94.5L97.9,123.3C97.9,125.1 97.8,126.8 97.7,128.3C97.2,134.9 95.6,139.8 93,143.1C89.7,147.2 84.7,149.2 78,149.2C73.3,149.2 69.3,148.2 65.9,146.2C65.4,145.9 64.9,145.6 64.3,145.1C63.5,144.5 62.7,143.6 61.9,142.5C59.5,138.9 57.8,132.4 60.7,120L53.3,133.6L52.2,135.7L49.5,140.6C50.3,142.1 51.2,143.5 52.2,144.8C52.3,145 52.5,145.1 52.6,145.3C53.4,146.4 54.3,147.4 55.2,148.4C55.5,148.7 55.7,148.9 56,149.2C57.6,150.8 59.4,152.1 61.3,153.3C66.1,156.1 71.8,157.6 78.3,157.6C83.6,157.6 88,156.7 91.7,155C95.3,153.3 98.3,150.9 100.6,147.9C102.9,144.8 104.6,141.3 105.6,137.3C106.6,133.3 107.2,128.9 107.2,124.2L107.2,123.5L107.2,101.9L97.9,94.5Z" style="fill:white;fill-rule:nonzero;"/>
    </g>
</svg>
